wp-content/themes/gfp/dist/img/facebook-icon.svg

<svg viewBox="0 0 7 15" xmlns="http://www.w3.org/2000/svg"><path d="m1.5 2.9v2.1h-1.5v2.5h1.5v7.5h3.1v-7.5h2.1s.2-1.2.3-2.5h-2.4v-1.8c.1-.3.4-.5.7-.6h1.7v-2.6h-2.3c-3.3 0-3.2 2.5-3.2 2.9z"/></svg>

<svg version="1.1" xmlns="http://www.w3.org/2000/svg" xmlns:xlink="http://www.w3.org/1999/xlink" viewBox="0 0 7 15" xml:space="preserve">
  <path d="M1.5,2.9V5H0v2.5h1.5V15h3.1V7.5h2.1c0,0,0.2-1.2,0.3-2.5H4.6V3.2C4.7,2.9,5,2.7,5.3,2.6H7V0H4.7C1.4,0,1.5,2.5,1.5,2.9z"/>
</svg>
